!!!OTL: Medsche waelt ta de Kanter nin ? Ne, Motter, ne.
!!!ARE: Europa, Mitteleuropa, Deutschland, Siebenbuergen
!!!SCT: D0219A
!!!YEM: Copyright 1995, estate of Helmut Schaffrath.
**kern
*ICvox
*Ivox
*M2/4
*k[b-]
*F:
=1
{8f
8f
8f
16g
16g
=2
8a
8g
4f}
=3
{4g
8c
8c
=4
4f
8r}
{8cc
=5
8cc
8cc
8bn
8cc
=6
8a
8a
4a}
=7
{8a
8a
8g
8a
=8
8f
8f
4f}
=9
{4g
8c
8c
=10
4f
4r}
==
!!!AGN: Ehestands - Lied
!! Variante zu D0219
!!!ONB: ESAC (Essen Associative Code) Database: DVA
!!!AMT: simple duple
!!!AIN: vox
!!!EED: Helmut Schaffrath
!!!EEV: 1.0
*-
